apps/64/gravit.svg

<svg xmlns="http://www.w3.org/2000/svg" style="isolation:isolate" width="256" height="256"><defs><filter id="a" x="-200%" y="-200%" width="400%" height="400%" filterUnits="objectBoundingBox" color-interpolation-filters="sRGB"><feGaussianBlur xmlns="http://www.w3.org/2000/svg" in="SourceGraphic" stdDeviation="4.294"/><feOffset xmlns="http://www.w3.org/2000/svg" dy="4" result="pf_100_offsetBlur"/><feFlood xmlns="http://www.w3.org/2000/svg" flood-color="#000" flood-opacity=".4"/><feComposite xmlns="http://www.w3.org/2000/svg" in2="pf_100_offsetBlur" operator="in" result="pf_100_dropShadow"/><feBlend xmlns="http://www.w3.org/2000/svg" in="SourceGraphic" in2="pf_100_dropShadow"/></filter></defs><path d="M165.685 11.947c74.055 0 84.639 10.557 84.639 84.544v59.251c0 73.986-10.584 84.543-84.639 84.543h-75.37c-74.055 0-84.639-10.557-84.639-84.543V96.491c0-73.987 10.584-84.544 84.639-84.544h75.37z" fill="#333" filter="url(#a)"/><path d="M5.989 83.662c.33-.297.664-.558.955-.827 4.541-4.189 15.281-13.707 18.428-16.334 1.543-1.287 7.542-6.564 13.33-11.719 5.787-5.154 13.268-11.745 16.625-14.648 3.356-2.903 10.317-9.234 15.469-14.063 3.156-2.959 9.74-8.818 15.547-14.025-5.112.031-9.738.172-14.231.342-25.536 25.126-45.32 44.809-65.987 65.649-.068 1.771-.092 3.758-.136 5.625zm186.278-70.976c-.583-.038-1.083-.103-1.678-.138-7.376-.433-15.641-.598-24.898-.598h-64.766c-4.958 7.679-9.643 14.934-17.063 26.44a335378.46 335378.46 0 0 1-29.795 46.188c-5.583 8.652-17.923 27.783-27.422 42.51-7.201 11.164-14.548 22.544-20.875 32.346.043 7.629.14 14.911.51 21.187.217 3.685.501 7.147.865 10.401.364 3.254.808 6.298 1.346 9.147.537 2.848 1.166 5.501 1.902 7.97.736 2.469 1.58 4.754 2.541 6.87a39.523 39.523 0 0 0 3.252 5.849 33.282 33.282 0 0 0 4.045 4.906 33.274 33.274 0 0 0 4.91 4.038 39.61 39.61 0 0 0 5.858 3.25c2.118.959 4.405 1.8 6.877 2.535 2.471.735 5.127 1.364 7.978 1.9 2.851.536 5.9.979 9.156 1.342 3.257.363 6.722.647 10.411.863 7.376.433 15.641.598 24.898.598h41.534c14.619-66.366 30-156.312 60.414-227.604z" fill="#C63166"/><path d="M72.112 12.388c-2.113.079-4.709.043-6.691.16-3.689.216-7.154.5-10.411.863-3.256.363-6.305.805-9.156 1.342-2.851.536-5.507 1.165-7.978 1.9-2.472.735-4.759 1.576-6.877 2.535-2.04.916-4 2.003-5.858 3.25a33.274 33.274 0 0 0-4.91 4.038 33.282 33.282 0 0 0-4.045 4.906 39.523 39.523 0 0 0-3.252 5.849c-.961 2.116-1.805 4.401-2.541 6.87-.736 2.469-1.365 5.122-1.902 7.97-.538 2.849-.982 5.893-1.346 9.147-.38 3.459-.668 6.927-.865 10.401-.112 1.897-.077 4.388-.155 6.406 20.657-20.827 40.476-40.54 65.987-65.637zm28.813-.438H90.319c-1.478 0-2.548.087-3.976.096-5.807 5.207-12.391 11.066-15.547 14.025-5.152 4.829-12.113 11.16-15.469 14.063-3.357 2.903-10.839 9.494-16.627 14.648-5.788 5.155-11.787 10.431-13.33 11.719-3.147 2.627-13.887 12.145-18.428 16.334-.291.268-.624.529-.953.825-.103 4.258-.309 8.062-.309 12.834v59.252c0 1.371.08 2.359.088 3.686 6.327-9.802 13.676-21.182 20.877-32.346 9.499-14.727 21.839-33.858 27.422-42.51 5.583-8.653 18.991-29.436 29.795-46.188 7.42-11.505 12.105-18.759 17.063-26.438z" fill="#B8DA6C"/><path d="M180.699 239.931c3.217-.094 6.96-.067 9.89-.239 3.689-.216 7.154-.5 10.411-.863 3.256-.363 6.305-.806 9.156-1.342 2.851-.536 5.507-1.165 7.978-1.9 2.472-.735 4.759-1.576 6.877-2.535 2.04-.916 4-2.003 5.858-3.25a33.274 33.274 0 0 0 4.91-4.038 33.282 33.282 0 0 0 4.045-4.906 39.523 39.523 0 0 0 3.252-5.849c.961-2.116 1.805-4.401 2.541-6.87.736-2.469 1.365-5.122 1.902-7.97.538-2.849.982-5.893 1.346-9.147.364-3.254.648-6.716.865-10.401.174-2.951.146-6.719.241-9.963l-69.272 69.273z" fill="#778B3C"/><path d="M249.971 170.66c.141-4.854.359-9.369.359-14.914V96.494c0-9.249-.166-17.506-.6-24.875a199.123 199.123 0 0 0-.865-10.401c-.364-3.254-.808-6.298-1.346-9.147-.537-2.848-1.166-5.501-1.902-7.97-.736-2.469-1.58-4.754-2.541-6.87a39.523 39.523 0 0 0-3.252-5.849 33.282 33.282 0 0 0-4.045-4.906 33.274 33.274 0 0 0-4.91-4.038 39.61 39.61 0 0 0-5.858-3.25c-2.118-.959-4.405-1.8-6.877-2.535-2.471-.735-5.127-1.364-7.978-1.9-2.851-.537-5.9-.979-9.156-1.342a199.53 199.53 0 0 0-10.411-.863c-1.471-.087-3.423-.054-4.966-.119-35.127 77.193-57.876 158.397-63.852 227.861h43.92c5.58 0 10.127-.217 15.01-.359l69.27-69.271z" fill="#EDDF36"/><path d="M5.676 126.116v29.626c0 73.986 10.584 84.543 84.639 84.543h75.37c74.055 0 84.639-10.557 84.639-84.543v-29.626H5.676z" fill="#FFF" opacity=".1"/><g opacity=".4"><linearGradient id="b" x1=".517" x2=".517" y2="1" gradientTransform="matrix(244.65 0 0 228.34 5.68 11.95)" gradientUnits="userSpaceOnUse"><stop offset="0%" stop-color="#fff"/><stop offset="12.5%" stop-opacity=".098" stop-color="#fff"/><stop offset="92.5%" stop-opacity=".098"/><stop offset="100%" stop-opacity=".498"/></linearGradient><path d="M165.068 11.951c4.328-.01 8.656.04 12.984.138 3.875.078 7.75.226 11.626.452 3.453.196 6.905.481 10.348.854 3.06.335 6.118.786 9.148 1.346a80.47 80.47 0 0 1 8.046 1.916 53.64 53.64 0 0 1 7.023 2.584 40.413 40.413 0 0 1 6.06 3.35 35.176 35.176 0 0 1 5.134 4.215 35.072 35.072 0 0 1 4.22 5.119 41.692 41.692 0 0 1 3.363 6.042 55.982 55.982 0 0 1 2.597 7.005 80.224 80.224 0 0 1 1.918 8.037 124.43 124.43 0 0 1 1.348 9.127c.374 3.439.659 6.878.856 10.326.226 3.861.373 7.732.462 11.593.088 4.323.138 8.646.128 12.96v58.21c.01 4.324-.04 8.637-.128 12.96a325.177 325.177 0 0 1-.462 11.593 200.984 200.984 0 0 1-.856 10.326 124.691 124.691 0 0 1-1.348 9.137 80.687 80.687 0 0 1-1.918 8.027 55.414 55.414 0 0 1-2.597 7.005 41.18 41.18 0 0 1-3.364 6.042 34.559 34.559 0 0 1-4.22 5.119 35.177 35.177 0 0 1-5.134 4.215 40.412 40.412 0 0 1-6.059 3.35 55.138 55.138 0 0 1-7.023 2.594 77.806 77.806 0 0 1-8.046 1.906 120 120 0 0 1-9.148 1.346c-3.443.373-6.895.658-10.348.854-3.875.226-7.75.374-11.626.462-4.328.088-8.656.138-12.984.128H90.942c-4.328.01-8.656-.04-12.984-.128a328.387 328.387 0 0 1-11.626-.462 203.003 203.003 0 0 1-10.348-.854 120 120 0 0 1-9.148-1.346 77.806 77.806 0 0 1-8.046-1.906 55.139 55.139 0 0 1-7.023-2.594 40.413 40.413 0 0 1-6.06-3.35 35.176 35.176 0 0 1-5.134-4.215 34.56 34.56 0 0 1-4.22-5.119 41.183 41.183 0 0 1-3.363-6.042 55.415 55.415 0 0 1-2.597-7.005 80.682 80.682 0 0 1-1.918-8.027 124.688 124.688 0 0 1-1.348-9.137 200.993 200.993 0 0 1-.856-10.326 325.212 325.212 0 0 1-.462-11.593 569.197 569.197 0 0 1-.128-12.96v-58.21c-.01-4.314.04-8.637.128-12.96.089-3.86.236-7.732.462-11.593.197-3.448.482-6.887.856-10.326.335-3.055.787-6.101 1.348-9.127a80.219 80.219 0 0 1 1.918-8.037 55.983 55.983 0 0 1 2.597-7.005 41.695 41.695 0 0 1 3.364-6.042 35.072 35.072 0 0 1 4.22-5.119 35.176 35.176 0 0 1 5.134-4.215 40.413 40.413 0 0 1 6.059-3.35 53.64 53.64 0 0 1 7.023-2.584 80.47 80.47 0 0 1 8.046-1.916 125.11 125.11 0 0 1 9.148-1.346c3.443-.373 6.895-.658 10.348-.854 3.875-.226 7.75-.374 11.626-.452 4.328-.098 8.656-.148 12.984-.138h74.126zm.01 4.009c4.298-.01 8.597.039 12.895.127 3.827.089 7.653.236 11.48.452 3.383.197 6.766.472 10.13.845 2.971.315 5.932.747 8.863 1.297a75.943 75.943 0 0 1 7.653 1.818 50.493 50.493 0 0 1 6.501 2.397 37.038 37.038 0 0 1 5.47 3.026 30.383 30.383 0 0 1 4.524 3.724 31.05 31.05 0 0 1 3.738 4.519 37.271 37.271 0 0 1 3.03 5.443 51.46 51.46 0 0 1 2.4 6.494 75.563 75.563 0 0 1 1.829 7.634c.54 2.928.974 5.875 1.298 8.842.374 3.36.65 6.73.846 10.11.217 3.822.374 7.634.453 11.456.088 4.293.137 8.577.137 12.87v58.212c0 4.293-.049 8.577-.137 12.87a317.503 317.503 0 0 1-.453 11.456c-.196 3.38-.472 6.75-.846 10.12a121.689 121.689 0 0 1-1.298 8.832 75.562 75.562 0 0 1-1.83 7.634 50.902 50.902 0 0 1-2.4 6.494 36.767 36.767 0 0 1-3.03 5.443 30.615 30.615 0 0 1-3.737 4.53 30.938 30.938 0 0 1-4.525 3.713 37.038 37.038 0 0 1-5.469 3.026 49.07 49.07 0 0 1-6.501 2.397 75.942 75.942 0 0 1-7.653 1.818c-2.931.55-5.892.982-8.863 1.306-3.364.364-6.747.649-10.13.836-3.827.216-7.653.373-11.48.452-4.298.098-8.597.137-12.895.137H90.932c-4.298 0-8.597-.04-12.895-.137a320.093 320.093 0 0 1-11.48-.452 193.696 193.696 0 0 1-10.13-.836 116.71 116.71 0 0 1-8.863-1.306 75.942 75.942 0 0 1-7.653-1.818 49.07 49.07 0 0 1-6.501-2.397 37.038 37.038 0 0 1-5.47-3.026 30.938 30.938 0 0 1-4.524-3.714 30.615 30.615 0 0 1-3.738-4.529 36.766 36.766 0 0 1-3.03-5.443 50.903 50.903 0 0 1-2.4-6.494 75.567 75.567 0 0 1-1.829-7.634 121.69 121.69 0 0 1-1.298-8.832c-.374-3.37-.65-6.74-.846-10.12a317.535 317.535 0 0 1-.453-11.456 623.851 623.851 0 0 1-.137-12.87V97.014c0-4.293.049-8.577.137-12.87.079-3.822.236-7.634.453-11.456.197-3.38.472-6.75.846-10.11.324-2.967.757-5.914 1.298-8.842a75.568 75.568 0 0 1 1.83-7.634 51.46 51.46 0 0 1 2.4-6.494 37.27 37.27 0 0 1 3.03-5.443 31.05 31.05 0 0 1 3.737-4.52 30.384 30.384 0 0 1 4.525-3.723 37.039 37.039 0 0 1 5.469-3.026 50.494 50.494 0 0 1 6.501-2.397 75.943 75.943 0 0 1 7.653-1.818c2.931-.55 5.892-.982 8.863-1.297 3.364-.373 6.747-.648 10.13-.845a344.71 344.71 0 0 1 11.48-.452c4.298-.088 8.597-.137 12.895-.127H165.078z" fill-rule="evenodd" fill="url(#b)"/></g></svg>

<?xml version="1.0" standalone="no"?><!-- Generator: Gravit.io --><svg xmlns="http://www.w3.org/2000/svg" xmlns:xlink="http://www.w3.org/1999/xlink" style="isolation:isolate" viewBox="0 0 256 256" width="256" height="256"><defs><filter id="11yoMCr7Zy75oylT2bVrzsiM6Jf7kTQn" x="-200%" y="-200%" width="400%" height="400%" filterUnits="objectBoundingBox" color-interpolation-filters="sRGB"><feGaussianBlur xmlns="http://www.w3.org/2000/svg" in="SourceGraphic" stdDeviation="4.294"/><feOffset xmlns="http://www.w3.org/2000/svg" dx="0" dy="4" result="pf_100_offsetBlur"/><feFlood xmlns="http://www.w3.org/2000/svg" flood-color="#000000" flood-opacity="0.4"/><feComposite xmlns="http://www.w3.org/2000/svg" in2="pf_100_offsetBlur" operator="in" result="pf_100_dropShadow"/><feBlend xmlns="http://www.w3.org/2000/svg" in="SourceGraphic" in2="pf_100_dropShadow" mode="normal"/></filter></defs><g filter="url(#11yoMCr7Zy75oylT2bVrzsiM6Jf7kTQn)"><path d=" M 165.685 11.947 C 239.74 11.947 250.324 22.504 250.324 96.491 L 250.324 155.742 C 250.324 229.728 239.74 240.285 165.685 240.285 L 90.315 240.285 C 16.26 240.285 5.676 229.728 5.676 155.742 L 5.676 96.491 C 5.676 22.504 16.26 11.947 90.315 11.947 L 165.685 11.947 L 165.685 11.947 Z " id="Path" fill="rgb(51,51,51)"/></g><linearGradient id="_lgradient_172" x1="1.2130490034692243" y1="0.05277218183410648" x2="0.15494440482510008" y2="0.960774867887068" gradientTransform="matrix(186.497,0,0,228.34,5.77,11.95)" gradientUnits="userSpaceOnUse"><stop offset="0%" stop-opacity="1" style="stop-color:rgb(231,38,98)"/><stop offset="48.271722%" stop-opacity="1" style="stop-color:rgb(236,60,80)"/><stop offset="100%" stop-opacity="1" style="stop-color:rgb(255,123,102)"/></linearGradient><path d=" M 5.989 83.662 C 6.319 83.365 6.653 83.104 6.944 82.835 C 11.485 78.646 22.225 69.128 25.372 66.501 C 26.915 65.214 32.914 59.937 38.702 54.782 C 44.489 49.628 51.97 43.037 55.327 40.134 C 58.683 37.231 65.644 30.9 70.796 26.071 C 73.952 23.112 80.536 17.253 86.343 12.046 C 81.231 12.077 76.605 12.218 72.112 12.388 C 46.576 37.514 26.792 57.197 6.125 78.037 C 6.057 79.808 6.033 81.795 5.989 83.662 Z  M 192.267 12.686 C 191.684 12.648 191.184 12.583 190.589 12.548 C 183.213 12.115 174.948 11.95 165.691 11.95 L 100.925 11.95 C 95.967 19.629 91.282 26.884 83.862 38.39 C 73.932 53.787 64 69.183 54.067 84.578 C 48.484 93.23 36.144 112.361 26.645 127.088 C 19.444 138.252 12.097 149.632 5.77 159.434 C 5.813 167.063 5.91 174.345 6.28 180.621 C 6.497 184.306 6.781 187.768 7.145 191.022 C 7.509 194.276 7.953 197.32 8.491 200.169 C 9.028 203.017 9.657 205.67 10.393 208.139 C 11.129 210.608 11.973 212.893 12.934 215.009 C 13.851 217.047 14.939 219.004 16.186 220.858 C 17.375 222.619 18.729 224.262 20.231 225.764 C 21.735 227.264 23.379 228.616 25.141 229.802 C 26.998 231.049 28.958 232.136 30.999 233.052 C 33.117 234.011 35.404 234.852 37.876 235.587 C 40.347 236.322 43.003 236.951 45.854 237.487 C 48.705 238.023 51.754 238.466 55.01 238.829 C 58.267 239.192 61.732 239.476 65.421 239.692 C 72.797 240.125 81.062 240.29 90.319 240.29 L 131.853 240.29 C 146.472 173.924 161.853 83.978 192.267 12.686 L 192.267 12.686 Z " id="Compound Path" fill="url(#_lgradient_172)"/><path d=" M 72.112 12.388 C 69.999 12.467 67.403 12.431 65.421 12.548 C 61.732 12.764 58.267 13.048 55.01 13.411 C 51.754 13.774 48.705 14.216 45.854 14.753 C 43.003 15.289 40.347 15.918 37.876 16.653 C 35.404 17.388 33.117 18.229 30.999 19.188 C 28.959 20.104 26.999 21.191 25.141 22.438 C 23.379 23.624 21.735 24.976 20.231 26.476 C 18.729 27.978 17.375 29.621 16.186 31.382 C 14.939 33.236 13.851 35.193 12.934 37.231 C 11.973 39.347 11.129 41.632 10.393 44.101 C 9.657 46.57 9.028 49.223 8.491 52.071 C 7.953 54.92 7.509 57.964 7.145 61.218 C 6.765 64.677 6.477 68.145 6.28 71.619 C 6.168 73.516 6.203 76.007 6.125 78.025 C 26.782 57.198 46.601 37.485 72.112 12.388 Z  M 100.925 11.95 L 90.319 11.95 C 88.841 11.95 87.771 12.037 86.343 12.046 C 80.536 17.253 73.952 23.112 70.796 26.071 C 65.644 30.9 58.683 37.231 55.327 40.134 C 51.97 43.037 44.488 49.628 38.7 54.782 C 32.912 59.937 26.913 65.213 25.37 66.501 C 22.223 69.128 11.483 78.646 6.942 82.835 C 6.651 83.103 6.318 83.364 5.989 83.66 C 5.886 87.918 5.68 91.722 5.68 96.494 L 5.68 155.746 C 5.68 157.117 5.76 158.105 5.768 159.432 C 12.095 149.63 19.444 138.25 26.645 127.086 C 36.144 112.359 48.484 93.228 54.067 84.576 C 59.65 75.923 73.058 55.14 83.862 38.388 C 91.282 26.883 95.967 19.629 100.925 11.95 L 100.925 11.95 Z " id="Compound Path" fill="rgb(17,171,102)"/><path d=" M 180.699 239.931 C 183.916 239.837 187.659 239.864 190.589 239.692 C 194.278 239.476 197.743 239.192 201 238.829 C 204.256 238.466 207.305 238.023 210.156 237.487 C 213.007 236.951 215.663 236.322 218.134 235.587 C 220.606 234.852 222.893 234.011 225.011 233.052 C 227.051 232.136 229.011 231.049 230.869 229.802 C 232.631 228.616 234.275 227.264 235.779 225.764 C 237.281 224.262 238.635 222.619 239.824 220.858 C 241.071 219.004 242.159 217.047 243.076 215.009 C 244.037 212.893 244.881 210.608 245.617 208.139 C 246.353 205.67 246.982 203.017 247.519 200.169 C 248.057 197.32 248.501 194.276 248.865 191.022 C 249.229 187.768 249.513 184.306 249.73 180.621 C 249.904 177.67 249.876 173.902 249.971 170.658 L 180.699 239.931 L 180.699 239.931 Z " id="Path" fill="rgb(17,171,102)"/><linearGradient id="_lgradient_173" x1="0.8470481776201328" y1="0.04200367768069123" x2="-0.7553289410568933" y2="0.9460636089545825" gradientTransform="matrix(128.559,0,0,227.861,121.771,12.429)" gradientUnits="userSpaceOnUse"><stop offset="0%" stop-opacity="1" style="stop-color:rgb(249,175,24)"/><stop offset="100%" stop-opacity="1" style="stop-color:rgb(254,207,59)"/></linearGradient><path d=" M 249.971 170.66 C 250.112 165.806 250.33 161.291 250.33 155.746 L 250.33 96.494 C 250.33 87.245 250.164 78.988 249.73 71.619 C 249.533 68.145 249.244 64.677 248.865 61.218 C 248.501 57.964 248.057 54.92 247.519 52.071 C 246.982 49.223 246.353 46.57 245.617 44.101 C 244.881 41.632 244.037 39.347 243.076 37.231 C 242.159 35.193 241.071 33.236 239.824 31.382 C 238.635 29.621 237.281 27.978 235.779 26.476 C 234.275 24.976 232.631 23.624 230.869 22.438 C 229.012 21.191 227.052 20.104 225.011 19.188 C 222.893 18.229 220.606 17.388 218.134 16.653 C 215.663 15.918 213.007 15.289 210.156 14.753 C 207.305 14.216 204.256 13.774 201 13.411 C 197.538 13.033 194.066 12.745 190.589 12.548 C 189.118 12.461 187.166 12.494 185.623 12.429 C 150.496 89.622 127.747 170.826 121.771 240.29 L 165.691 240.29 C 171.271 240.29 175.818 240.073 180.701 239.931 L 249.971 170.66 L 249.971 170.66 Z " id="Path" fill="url(#_lgradient_173)"/><g opacity="0.2"><linearGradient id="_lgradient_174" x1="0.8951254948538238" y1="0.03526789367124222" x2="0.08579945929935051" y2="0.9549571097369598" gradientTransform="matrix(244.648,0,0,228.338,5.676,11.947)" gradientUnits="userSpaceOnUse"><stop offset="0%" stop-opacity="0" style="stop-color:rgb(174,167,149)"/><stop offset="100%" stop-opacity="1" style="stop-color:rgb(255,255,255)"/></linearGradient><path d=" M 165.685 11.947 C 239.74 11.947 250.324 22.504 250.324 96.491 L 250.324 155.742 C 250.324 229.728 239.74 240.285 165.685 240.285 L 90.315 240.285 C 16.26 240.285 5.676 229.728 5.676 155.742 L 5.676 96.491 C 5.676 22.504 16.26 11.947 90.315 11.947 L 165.685 11.947 Z " id="Path" fill="url(#_lgradient_174)"/></g><g opacity="0.4"><linearGradient id="_lgradient_175" x1="0.5169999634453897" y1="0.0000011256553389474289" x2="0.5169999634453895" y2="0.9999988480691453" gradientTransform="matrix(244.651,0,0,228.341,5.68,11.95)" gradientUnits="userSpaceOnUse"><stop offset="0%" stop-opacity="1" style="stop-color:rgb(255,255,255)"/><stop offset="12.5%" stop-opacity="0.098" style="stop-color:rgb(255,255,255)"/><stop offset="92.499901888811%" stop-opacity="1" style="stop-color:rgb(0,0,0)"/><stop offset="99.99988480691454%" stop-opacity="1" style="stop-color:rgb(0,0,0)"/></linearGradient><path d=" M 165.068 11.951 C 169.396 11.941 173.724 11.991 178.052 12.089 C 181.927 12.167 185.802 12.315 189.678 12.541 C 193.131 12.737 196.583 13.022 200.026 13.395 C 203.086 13.73 206.144 14.181 209.174 14.741 C 211.887 15.241 214.573 15.881 217.22 16.657 C 219.618 17.354 221.965 18.217 224.243 19.241 C 226.355 20.182 228.383 21.303 230.303 22.591 C 232.143 23.831 233.862 25.242 235.437 26.806 C 237.002 28.375 238.415 30.089 239.657 31.925 C 240.943 33.842 242.068 35.863 243.02 37.967 C 244.041 40.242 244.908 42.582 245.617 44.972 C 246.394 47.616 247.034 50.299 247.535 53.009 C 248.097 56.034 248.547 59.078 248.883 62.136 C 249.257 65.575 249.542 69.014 249.739 72.462 C 249.965 76.323 250.112 80.194 250.201 84.055 C 250.289 88.378 250.339 92.701 250.329 97.015 L 250.329 155.225 C 250.339 159.549 250.289 163.862 250.201 168.185 C 250.116 172.052 249.962 175.917 249.739 179.778 C 249.542 183.227 249.257 186.67 248.883 190.104 C 248.547 193.165 248.097 196.213 247.535 199.241 C 247.033 201.948 246.393 204.627 245.617 207.268 C 244.91 209.659 244.042 211.999 243.02 214.273 C 242.07 216.378 240.945 218.399 239.656 220.315 C 238.417 222.153 237.004 223.867 235.436 225.434 C 233.861 226.998 232.142 228.409 230.302 229.649 C 228.382 230.937 226.355 232.058 224.243 232.999 C 221.963 234.022 219.617 234.888 217.22 235.593 C 214.574 236.37 211.888 237.007 209.174 237.499 C 206.143 238.065 203.091 238.514 200.026 238.845 C 196.583 239.218 193.131 239.503 189.678 239.699 C 185.803 239.925 181.928 240.073 178.052 240.161 C 173.724 240.249 169.396 240.299 165.068 240.289 L 90.942 240.289 C 86.614 240.299 82.286 240.249 77.958 240.161 C 74.08 240.076 70.204 239.922 66.332 239.699 C 62.876 239.503 59.425 239.218 55.984 238.845 C 52.919 238.514 49.867 238.065 46.836 237.499 C 44.122 237.007 41.436 236.37 38.79 235.593 C 36.393 234.888 34.047 234.022 31.767 232.999 C 29.655 232.058 27.627 230.937 25.707 229.649 C 23.867 228.409 22.148 226.998 20.573 225.434 C 19.005 223.867 17.592 222.153 16.353 220.315 C 15.065 218.399 13.94 216.378 12.99 214.273 C 11.968 211.999 11.1 209.659 10.393 207.268 C 9.617 204.627 8.977 201.948 8.475 199.241 C 7.913 196.213 7.463 193.165 7.127 190.104 C 6.753 186.67 6.468 183.227 6.271 179.778 C 6.048 175.917 5.894 172.052 5.809 168.185 C 5.717 163.866 5.674 159.545 5.681 155.225 L 5.681 97.015 C 5.671 92.701 5.721 88.378 5.809 84.055 C 5.898 80.195 6.045 76.323 6.271 72.462 C 6.468 69.014 6.753 65.575 7.127 62.136 C 7.462 59.081 7.914 56.035 8.475 53.009 C 8.976 50.299 9.616 47.616 10.393 44.972 C 11.102 42.582 11.969 40.242 12.99 37.967 C 13.942 35.863 15.067 33.842 16.354 31.925 C 17.596 30.089 19.009 28.375 20.574 26.806 C 22.149 25.242 23.868 23.831 25.708 22.591 C 27.628 21.303 29.655 20.182 31.767 19.241 C 34.045 18.217 36.392 17.354 38.79 16.657 C 41.437 15.881 44.123 15.241 46.836 14.741 C 49.868 14.18 52.919 13.731 55.984 13.395 C 59.427 13.022 62.879 12.737 66.332 12.541 C 70.207 12.315 74.082 12.167 77.958 12.089 C 82.286 11.991 86.614 11.941 90.942 11.951 L 165.068 11.951 L 165.068 11.951 Z  M 165.078 15.96 C 169.376 15.95 173.675 15.999 177.973 16.087 C 181.8 16.176 185.626 16.323 189.453 16.539 C 192.836 16.736 196.219 17.011 199.583 17.384 C 202.554 17.699 205.515 18.131 208.446 18.681 C 211.027 19.154 213.581 19.761 216.099 20.499 C 218.318 21.148 220.49 21.949 222.6 22.896 C 224.505 23.749 226.335 24.761 228.07 25.922 C 229.694 27.015 231.21 28.262 232.594 29.646 C 233.98 31.031 235.231 32.544 236.332 34.165 C 237.492 35.892 238.506 37.712 239.362 39.608 C 240.307 41.716 241.109 43.886 241.762 46.102 C 242.504 48.613 243.114 51.161 243.591 53.736 C 244.131 56.664 244.565 59.611 244.889 62.578 C 245.263 65.938 245.539 69.308 245.735 72.688 C 245.952 76.51 246.109 80.322 246.188 84.144 C 246.276 88.437 246.325 92.721 246.325 97.014 L 246.325 155.226 C 246.325 159.519 246.276 163.803 246.188 168.096 C 246.106 171.917 245.955 175.736 245.735 179.552 C 245.539 182.932 245.263 186.302 244.889 189.672 C 244.564 192.631 244.132 195.577 243.591 198.504 C 243.114 201.079 242.503 203.627 241.761 206.138 C 241.109 208.355 240.307 210.524 239.361 212.632 C 238.507 214.529 237.493 216.35 236.331 218.075 C 235.233 219.701 233.982 221.218 232.594 222.605 C 231.206 223.983 229.691 225.226 228.069 226.318 C 226.335 227.479 224.505 228.491 222.6 229.344 C 220.492 230.295 218.32 231.096 216.099 231.741 C 213.581 232.479 211.027 233.086 208.446 233.559 C 205.515 234.109 202.554 234.541 199.583 234.865 C 196.219 235.229 192.836 235.514 189.453 235.701 C 185.626 235.917 181.8 236.074 177.973 236.153 C 173.675 236.251 169.376 236.29 165.078 236.29 L 90.932 236.29 C 86.634 236.29 82.335 236.25 78.037 236.153 C 74.208 236.071 70.381 235.92 66.557 235.701 C 63.174 235.511 59.796 235.232 56.427 234.865 C 53.457 234.543 50.501 234.108 47.564 233.559 C 44.983 233.086 42.429 232.479 39.911 231.741 C 37.69 231.096 35.518 230.295 33.41 229.344 C 31.505 228.491 29.675 227.479 27.94 226.318 C 26.318 225.226 24.803 223.982 23.416 222.604 C 22.028 221.218 20.776 219.701 19.678 218.075 C 18.516 216.35 17.502 214.529 16.648 212.632 C 15.702 210.524 14.9 208.355 14.248 206.138 C 13.506 203.627 12.896 201.079 12.419 198.504 C 11.878 195.577 11.446 192.631 11.121 189.672 C 10.747 186.302 10.471 182.932 10.275 179.552 C 10.055 175.736 9.904 171.917 9.822 168.096 C 9.732 163.807 9.686 159.516 9.685 155.226 L 9.685 97.014 C 9.685 92.721 9.734 88.437 9.822 84.144 C 9.901 80.322 10.058 76.51 10.275 72.688 C 10.472 69.308 10.747 65.938 11.121 62.578 C 11.445 59.611 11.878 56.664 12.419 53.736 C 12.896 51.161 13.507 48.613 14.249 46.102 C 14.902 43.886 15.704 41.716 16.649 39.608 C 17.505 37.712 18.519 35.892 19.679 34.165 C 20.779 32.544 22.031 31.03 23.416 29.645 C 24.801 28.261 26.316 27.014 27.941 25.922 C 29.675 24.761 31.505 23.749 33.41 22.896 C 35.52 21.949 37.692 21.148 39.911 20.499 C 42.429 19.761 44.983 19.154 47.564 18.681 C 50.495 18.131 53.456 17.699 56.427 17.384 C 59.791 17.011 63.174 16.736 66.557 16.539 C 70.381 16.325 74.208 16.174 78.037 16.087 C 82.335 15.999 86.634 15.95 90.932 15.96 L 165.078 15.96 L 165.078 15.96 Z " fill-rule="evenodd" id="Compound Path" fill="url(#_lgradient_175)"/></g></svg>
